assets/svg/icon_button_send.svg

<svg width="24" height="24" viewBox="0 0 24 24" fill="none" xmlns="http://www.w3.org/2000/svg">
<path d="M12.575 16C12.575 16.3175 12.3176 16.575 12 16.575C11.6824 16.575 11.425 16.3175 11.425 16H12.575ZM12 8L11.5934 7.59343C11.818 7.36889 12.182 7.36889 12.4066 7.59343L12 8ZM14.8066 9.99343C15.0311 10.218 15.0311 10.582 14.8066 10.8066C14.582 11.0311 14.218 11.0311 13.9934 10.8066L14.8066 9.99343ZM10.0066 10.8066C9.78203 11.0311 9.41797 11.0311 9.19343 10.8066C8.96889 10.582 8.96889 10.218 9.19343 9.99343L10.0066 10.8066ZM5.1712 5.1712L4.76435 4.76491L4.76477 4.76449L5.1712 5.1712ZM5.1712 18.828L4.76477 19.2347L4.76463 19.2346L5.1712 18.828ZM18.828 18.828L18.4213 18.4216L18.4217 18.4212L18.828 18.828ZM18.828 5.1712L18.4214 5.57777L18.4213 5.57763L18.828 5.1712ZM11.425 16V8H12.575V16H11.425ZM12.4066 7.59343L14.8066 9.99343L13.9934 10.8066L11.5934 8.40657L12.4066 7.59343ZM12.4066 8.40657L10.0066 10.8066L9.19343 9.99343L11.5934 7.59343L12.4066 8.40657ZM12 4.57498C10.0982 4.57498 8.72959 4.57619 7.68749 4.71625C6.66192 4.85409 6.03901 5.11684 5.57763 5.57791L4.76477 4.76449C5.47539 4.05436 6.38128 3.73151 7.53431 3.57655C8.67081 3.4238 10.1306 3.42502 12 3.42502V4.57498ZM5.57805 5.57749C5.11683 6.03934 4.85408 6.66238 4.71625 7.68779C4.5762 8.72979 4.57498 10.0982 4.57498 12H3.42502C3.42502 10.1306 3.4238 8.67101 3.57655 7.53461C3.73152 6.38161 4.05437 5.47586 4.76435 4.76491L5.57805 5.57749ZM4.57498 12C4.57498 13.9019 4.5762 15.2704 4.71625 16.3124C4.85409 17.3379 5.11683 17.9605 5.57777 18.4214L4.76463 19.2346C4.05437 18.5243 3.73151 17.6185 3.57655 16.4656C3.4238 15.3292 3.42502 13.8693 3.42502 12H4.57498ZM5.57763 18.4213C6.0395 18.8828 6.66251 19.1457 7.68785 19.2837C8.72981 19.4238 10.0981 19.425 12 19.425V20.575C10.1307 20.575 8.67099 20.5762 7.53455 20.4233C6.38149 20.2683 5.4757 19.9452 4.76477 19.2347L5.57763 18.4213ZM12 19.425C13.9019 19.425 15.2704 19.4238 16.3124 19.2837C17.3378 19.1457 17.9603 18.8828 18.4213 18.4216L19.2347 19.2344C18.5245 19.9452 17.6186 20.2683 16.4656 20.4233C15.3292 20.5762 13.8693 20.575 12 20.575V19.425ZM18.4217 18.4212C18.8828 17.9607 19.1457 17.3382 19.2837 16.3127C19.4238 15.2706 19.425 13.9019 19.425 12H20.575C20.575 13.8693 20.5762 15.3294 20.4233 16.4659C20.2683 17.619 19.9452 18.5249 19.2343 19.2348L18.4217 18.4212ZM19.425 12C19.425 10.0981 19.4238 8.72961 19.2837 7.68754C19.1457 6.66204 18.8828 6.03916 18.4214 5.57777L19.2346 4.76463C19.9452 5.47524 20.2683 6.38116 20.4233 7.53426C20.5762 8.67079 20.575 10.1307 20.575 12H19.425ZM18.4213 5.57763C17.9608 5.11685 17.3384 4.8541 16.3127 4.71625C15.2706 4.5762 13.9018 4.57498 12 4.57498V3.42502C13.8694 3.42502 15.3294 3.4238 16.4659 3.57655C17.6188 3.7315 18.5248 4.05435 19.2347 4.76477L18.4213 5.57763Z" fill="white"/>
</svg>

<svg xmlns="http://www.w3.org/2000/svg" width="24" height="24" fill="none"><path fill="#fff" d="M12.575 16a.575.575 0 0 1-1.15 0zM12 8l-.407-.407a.575.575 0 0 1 .814 0zm2.807 1.993a.575.575 0 0 1-.814.814zm-4.8.814a.575.575 0 0 1-.814-.814zM5.17 5.17l-.407-.406zm0 13.657-.406.407zm13.657 0-.407-.406zm0-13.657-.407.407zM11.425 16V8h1.15v8zm.982-8.407 2.4 2.4-.814.814-2.4-2.4zm0 .814-2.4 2.4-.814-.814 2.4-2.4zM12 4.575c-1.902 0-3.27.001-4.313.141-1.025.138-1.648.4-2.11.862l-.812-.814c.71-.71 1.616-1.032 2.77-1.187C8.67 3.424 10.13 3.425 12 3.425zM5.578 5.577c-.461.462-.724 1.085-.862 2.11-.14 1.043-.141 2.411-.141 4.313h-1.15c0-1.87-.001-3.329.152-4.465.155-1.153.477-2.06 1.187-2.77zM4.575 12c0 1.902.001 3.27.141 4.312.138 1.026.4 1.648.862 2.11l-.813.813c-.71-.71-1.033-1.616-1.188-2.77-.153-1.136-.152-2.596-.152-4.465zm1.003 6.421c.462.462 1.085.725 2.11.863 1.042.14 2.41.141 4.312.141v1.15c-1.87 0-3.329.001-4.465-.152-1.154-.155-2.06-.478-2.77-1.188zM12 19.425c1.902 0 3.27-.001 4.312-.141 1.026-.138 1.648-.401 2.11-.862l.813.812c-.71.711-1.616 1.034-2.77 1.19-1.136.152-2.596.151-4.465.151zm6.422-1.004c.46-.46.724-1.083.862-2.108.14-1.042.141-2.411.141-4.313h1.15c0 1.87.001 3.33-.152 4.466-.155 1.153-.478 2.059-1.189 2.769zM19.425 12c0-1.902-.001-3.27-.141-4.312-.138-1.026-.401-1.649-.863-2.11l.814-.813c.71.71 1.033 1.616 1.188 2.77.153 1.136.152 2.596.152 4.465zm-1.004-6.422c-.46-.461-1.083-.724-2.108-.862-1.042-.14-2.411-.141-4.313-.141v-1.15c1.87 0 3.33-.001 4.466.152 1.153.155 2.059.477 2.769 1.188z"/></svg>
